X:780
T:The rose in the heather
R:Jig
D:Frankie Gavin: Frankie Goes to Town
S:My arrangement from various sources
Z:Transcription, arrangement, chords:Mike Long
M:6/8
L:1/8
K:D
"D"~F2F "A"EFE|"D"DFA BAF|"G"ABd ede|"A"fdB AFE|\
"D"D2F "A"EDB,|"D"DFA BAF|
"G"AdB "A"AFE|[1 "D"FDD D3:|[2 "D"FDD D2e\
|:"D"fdB "A"ABd|"D"faa afd|"G"~g3 fed|
"A"Bee ede|\
"D"fdB "A"ABd|"D"faa afa|"G"baf "A"gfe|[1 "D"fdd d2e:|[2 "G"fdB "A"AFE|]
